lib/brands/icons/google-tv.svg

<svg xmlns="http://www.w3.org/2000/svg" fill="none" aria-hidden="true" viewBox="0 0 48 48"><g id="google-tv-Icon"><g id="Group"><path id="Vector" fill="#4285F4" d="M38.8284 9.40945H15.1771C13.1198 9.40945 11.4492 11.0801 11.4492 13.1373V16.8652H40.2729C42.3301 16.8652 44.0007 18.5358 44.0007 20.5931V14.5818C44.0007 11.7221 41.6881 9.40945 38.8284 9.40945Z"/><path id="Vector_2" fill="#34A853" d="M9.17333 9.40945C6.31358 9.40945 4.00098 11.7221 4.00098 14.5818V27.4142C4.00098 29.4715 5.67159 31.1421 7.72886 31.1421H11.4567V13.1373C11.4567 11.0801 13.1201 9.40945 15.1773 9.40945H9.17333Z"/><path id="Vector_3" fill="#FBBC04" d="M9.17333 38.5905H32.8246C34.8819 38.5905 36.5525 36.9199 36.5525 34.8627V31.1348H7.72886C5.67159 31.1348 4.00098 29.4715 4.00098 27.4142V33.4182C4.00098 36.2779 6.31358 38.5905 9.17333 38.5905Z"/><path id="Vector_4" fill="#EA4335" d="M38.8287 38.5906C41.6884 38.5906 44.001 36.278 44.001 33.4182V20.5858C44.001 18.5286 42.3304 16.8579 40.2732 16.8579H36.5453V34.8627C36.5453 36.9199 34.8747 38.5906 32.8174 38.5906H38.8287Z"/></g></g></svg>

<svg xmlns="http://www.w3.org/2000/svg" fill="none" aria-hidden="true" viewBox="0 0 48 48"><path fill="#4285F4" d="M38.828 9.41h-23.65a3.73 3.73 0 0 0-3.729 3.727v3.728h28.824A3.73 3.73 0 0 1 44 20.593v-6.011a5.168 5.168 0 0 0-5.173-5.173Z"/><path fill="#34A853" d="M9.173 9.41a5.168 5.168 0 0 0-5.172 5.172v12.832a3.73 3.73 0 0 0 3.728 3.728h3.728V13.137a3.724 3.724 0 0 1 3.72-3.728H9.173Z"/><path fill="#FBBC04" d="M9.173 38.59h23.652a3.73 3.73 0 0 0 3.727-3.727v-3.728H7.73A3.724 3.724 0 0 1 4 27.415v6.003a5.168 5.168 0 0 0 5.172 5.172Z"/><path fill="#EA4335" d="M38.829 38.59A5.168 5.168 0 0 0 44 33.419V20.586a3.73 3.73 0 0 0-3.728-3.728h-3.728v18.005a3.73 3.73 0 0 1-3.728 3.728h6.012Z"/></svg>
